X:1
T:King of Glory and Peace, 74.74 D
T:King of Glory and Peace, 74.74 D
T:Scott Werdebaugh, 2018
T:© 2018 Scott Werdebaugh &amp; New Heart Music - Copy &amp; use freely for Christian worship or devotions. All other rights reserved.
C:Scott Werdebaugh, 2018
Z:© 2018 Scott Werdebaugh & New Heart Music - Copy & use freely for Christian
Z:worship or devotions. All other rights reserved.
%%score 1 2
L:1/8
Q:1/4=144
M:4/4
K:C
V:1 treble 
V:2 bass 
V:1
 [EG]4 [CA]4 | ([EG]2 [DF]2) ([CE]2 [DF]2) | [EG]2 [EG]2 [CA]2 [CA]2 | [EG]6 z2 | [CA]4 [CA]4 | %5
 ([EG]2 [DF]2) [CE]2 [CF][EG] | [FA]4 [FA]4 | [EG]4 [CE]4 | [B,D]6 z2 | [EG]4 [CA]4 | %10
 ([EG]2 [DF]2) [CE]4 | [EG]4 [FA]4 | [FA]2 [FA]2 [EG]3 [DF] | [EG]6 z2 | [CA]4 [DB]2 [DB]2 | %15
 [Ec]4 [DB]4 | [Ec]6 z2 | [Ec]2 [Ec]2 [DB]2 [CA]2 | [EG]3 [DF] [EG]4 | [FA]4 [Ec]4 | %20
 ([Gd]6 [Fc]2) | [Ec]6 z2 |] %22
V:2
 [C,C]4 [F,A,]4 | ([C,C]2 [G,,B,]2) ([C,G,]2 [G,,B,]2) | [C,C]2 [C,C]2 [F,A,]2 [F,A,]2 | %3
 [C,C]6 z2 | [F,A,]4 [F,A,]4 | ([C,C]2 [G,B,]2) [C,G,]2 [F,A,][C,C] | [F,C]4 [F,C]4 | %7
 [C,C]4 [C,G,]4 | [G,,G,]6 z2 | [C,C]4 [F,A,]4 | ([C,C]2 [G,,B,]2) [C,G,]4 | [C,C]4 [F,C]4 | %12
 [F,C]2 [F,C]2 [C,C]3 [G,,G,] | [C,C]6 z2 | [F,A,]4 [G,,G,]2- [G,,G,]2 | ([C,G,]4 [G,,G,]4) | %16
 [C,G,]6 z2 | [C,G,]2 [C,G,]2 [G,,G,]2 [F,,F,]2 | [C,C]3 [G,,B,] [C,C]4 | [F,C]4 [C,G,]4 | %20
 ([G,B,]6 [F,A,]2) | [C,G,]6 z2 |] %22

